dist/svgs/crypto-icons/icons/sdc.svg

<?xml version="1.0" encoding="UTF-8" standalone="yes"?>
<svg xmlns="http://www.w3.org/2000/svg" xmlns:xlink="http://www.w3.org/1999/xlink" width="512px" height="512px" viewBox="0 0 384 384" version="1.1">
  <g id="surface1">
    <path style=" stroke:none;fill-rule:nonzero;fill:rgb(0%,0%,0%);fill-opacity:1;" d="M 192.109375 0 L 25.996094 95.90625 L 25.996094 287.714844 L 192.109375 383.621094 L 358.21875 287.714844 L 358.21875 95.90625 Z M 324.429688 265.121094 L 192.109375 341.519531 L 59.785156 265.121094 L 59.785156 112.332031 L 192.109375 35.933594 L 324.429688 112.332031 Z M 324.429688 265.121094 "/>
    <path style=" stroke:none;fill-rule:nonzero;fill:rgb(0%,0%,0%);fill-opacity:1;" d="M 88.792969 129.082031 L 88.792969 150.957031 L 242.480469 237.976562 L 192.109375 267.0625 L 124.269531 227.894531 L 124.269531 182.542969 L 88.792969 162.445312 L 88.792969 248.375 L 192.109375 308.027344 L 295.417969 248.375 L 295.417969 223.484375 L 144.285156 138.007812 L 192.109375 110.394531 L 259.945312 149.5625 L 259.945312 191.898438 L 295.417969 212.003906 L 295.417969 129.082031 L 192.109375 69.433594 Z M 88.792969 129.082031 "/>
  </g>
</svg>

<svg xmlns="http://www.w3.org/2000/svg" viewBox="0 0 384 384"><path d="M192.11 0L25.995 95.906v191.809L192.11 383.62l166.11-95.906V95.906zm132.32 265.121L192.11 341.52l-132.326-76.4V112.332L192.11 35.934l132.32 76.398zm0 0"/><path d="M88.793 129.082v21.875l153.687 87.02-50.37 29.085-67.84-39.167v-45.352l-35.477-20.098v85.93l103.316 59.652 103.309-59.652v-24.89l-151.133-85.477 47.824-27.613 67.836 39.168v42.335l35.473 20.106v-82.922L192.109 69.434zm0 0"/></svg>
